!!!OTL: 1463. Jaegerlied.
!!!ODT: 1891
!!!ARE: Europa, Mitteleuropa, Deutschland, Hessen, Wetterau, Birklar
!!!SCT: E1463
!!!TXL: @@DE
!!!YEM: Copyright 1995, estate of Helmut Schaffrath.
**kern	**text
*ICvox	*
*M6/8	*
*k[f#]	*
*G:	*
=1	=1
!LO:TX:a:t=Munter.	!
!LO:TX:a:t=Wetterau. Virklar u. Kloſter Amsburg 1891.	!
{4d	Wenn
8d	ich
4d	ganʒ
8d	er-
=2	=2
4d	-mü-
8b	-det
4b	bin,
8r}	.
=3	=3
{4a	leg
8b	ich
4cc	mich
8f#	ins
=4	=4
4a	Grü-
8b/	-ne
4g	hin,
8r}	.
=5	=5
{4d	un-
8f#	-ter
4a	ei-
8dd	-nen
=6	=6
4b/	Küchlingsbaum
8b/	.
4a	.
8r}	.
=7	=7
{4d	fängt
8f#	es
4a	mir
8dd	ʒu
=8	=8
4b/	träu-
8b/	-men
4a	an
8r}	.
=9	=9
{4d	von
8cc	meim
4cc	Schätʒlein
8dd	.
=10	=10
4b	träumt
8ee	es
4dd	mir,
8r}	.
=11	=11
{4b	das
8ee	kommt
4dd	mir
8b	im
=12	=12
4a	Schlafe
16aL	.
16bJ	.
4g	für.
8r}	.
==	==
!!!AGN: Staende -, Jaeger - Lied
!!!ONB: ESAC (Essen Associative Code) Database: ERK3
!!!AMT: compound duple
!!!AIN: vox
!!!EED: Helmut Schaffrath
!!!EEV: 1.0
!!!GTL: Staendelieder (Berufslieder). 2. Jaegerlieder und Jaegerballaden.
!!!URL-scan: https://rosdok.uni-rostock.de/mcrviewer/recordIdentifier/rosdok_ppn745177999/iview2/phys_0326.iview2?x=-128.77276441889285&y=-46.205699077108875&scale=0.5870222003877487&rotation=0&layout=singlePageLayout
!!!ENC: Anna Maria Matuszewska
!!!EEV: 2024/12/31
*-	*-
